X: 4
T: Garrett Barry's
R: jig
M: 6/8
L: 1/8
K: Dmix
|: D2 |DEF GE/F/G | AGE c2 A | dcA d2 e | =fed cAG |
F^EF GFG | A^GA cde | dcA GEA | DED D- :|
|: F/G/A |dcA d2 g | fed eg/f/e | dcA c2 d | efe e^cA |
dcA d2 e | fed efe | dcA GEA | DED D- :|


Tune 544	Setting 544

